www/assets/images/test_icons/flags/SV.svg

<svg fill="none" height="15" viewBox="0 0 21 15" width="21" xmlns="http://www.w3.org/2000/svg" xmlns:xlink="http://www.w3.org/1999/xlink"><mask id="a" height="15" maskUnits="userSpaceOnUse" width="21" x="0" y="0"><path d="m19 0h-17c-1.10457 0-2 .89543-2 2v11c0 1.1046.89543 2 2 2h17c1.1046 0 2-.8954 2-2v-11c0-1.10457-.8954-2-2-2z" fill="#fff"/></mask><g mask="url(#a)"><path d="m19 0h-17c-1.10457 0-2 .89543-2 2v11c0 1.1046.89543 2 2 2h17c1.1046 0 2-.8954 2-2v-11c0-1.10457-.8954-2-2-2z" fill="#fff"/><path clip-rule="evenodd" d="m0 10h21v5h-21zm0-10h21v5h-21z" fill="#0643b2" fill-rule="evenodd"/><path d="m10.5 9c.8284 0 1.5-.67157 1.5-1.5s-.6716-1.5-1.5-1.5c-.82843 0-1.5.67157-1.5 1.5s.67157 1.5 1.5 1.5z" fill="#0017a2"/><path d="m10.5 8c.2761 0 .5-.22386.5-.5s-.2239-.5-.5-.5-.5.22386-.5.5.2239.5.5.5z" fill="#ffcd00"/><path clip-rule="evenodd" d="m8 7 1 1 1.5 1 1.5-1 1-1-1 2h-3z" fill="#22551e" fill-rule="evenodd"/><path d="m19 .5h-17c-.82843 0-1.5.67157-1.5 1.5v11c0 .8284.67157 1.5 1.5 1.5h17c.8284 0 1.5-.6716 1.5-1.5v-11c0-.82843-.6716-1.5-1.5-1.5z" stroke="#000" stroke-opacity=".1"/></g></svg>

<svg width="21" height="15" viewBox="0 0 21 15" fill="none" xmlns="http://www.w3.org/2000/svg">
<mask id="mask0_3_36" style="mask-type:alpha" maskUnits="userSpaceOnUse" x="0" y="0" width="21" height="15">
<path d="M19 0H2C0.89543 0 0 0.89543 0 2V13C0 14.1046 0.89543 15 2 15H19C20.1046 15 21 14.1046 21 13V2C21 0.89543 20.1046 0 19 0Z" fill="white"/>
</mask>
<g mask="url(#mask0_3_36)">
<path d="M19 0H2C0.89543 0 0 0.89543 0 2V13C0 14.1046 0.89543 15 2 15H19C20.1046 15 21 14.1046 21 13V2C21 0.89543 20.1046 0 19 0Z" fill="white"/>
<path fill-rule="evenodd" clip-rule="evenodd" d="M0 10H21V15H0V10ZM0 0H21V5H0V0Z" fill="#0643B2"/>
<path d="M10.5 9C11.3284 9 12 8.32843 12 7.5C12 6.67157 11.3284 6 10.5 6C9.67157 6 9 6.67157 9 7.5C9 8.32843 9.67157 9 10.5 9Z" fill="#0017A2"/>
<path d="M10.5 8C10.7761 8 11 7.77614 11 7.5C11 7.22386 10.7761 7 10.5 7C10.2239 7 10 7.22386 10 7.5C10 7.77614 10.2239 8 10.5 8Z" fill="#FFCD00"/>
<path fill-rule="evenodd" clip-rule="evenodd" d="M8 7L9 8L10.5 9L12 8L13 7L12 9H9L8 7Z" fill="#22551E"/>
<path d="M19 0.5H2C1.17157 0.5 0.5 1.17157 0.5 2V13C0.5 13.8284 1.17157 14.5 2 14.5H19C19.8284 14.5 20.5 13.8284 20.5 13V2C20.5 1.17157 19.8284 0.5 19 0.5Z" stroke="black" stroke-opacity="0.1"/>
</g>
</svg>
